app/assets/svgs/twitter.svg

<?xml version="1.0" encoding="UTF-8" standalone="no"?>
<svg width="75px" height="61px" viewBox="0 0 75 61" version="1.1" xmlns="http://www.w3.org/2000/svg" xmlns:xlink="http://www.w3.org/1999/xlink">
    <!-- Generator: Sketch 3.7.2 (28276) - http://www.bohemiancoding.com/sketch -->
    <title>Shape</title>
    <desc>Created with Sketch.</desc>
    <defs></defs>
    <g id="Page-1" stroke="none" stroke-width="1" fill="none" fill-rule="evenodd">
        <g id="twitter" fill="#FFFFFF">
            <path d="M50.1100224,0.0135249723 L50.1100224,0 L51.8682689,0 L53.6265153,0 L54.9113876,0.256974474 C55.7679917,0.423805008 56.5456777,0.642436185 57.2444453,0.912935632 C57.9432807,1.18343508 58.6195293,1.49904031 59.2731912,1.85968369 C59.9269207,2.22032708 60.5197879,2.58780058 61.0517927,2.96196894 C61.5792666,3.33167406 62.0526406,3.72389825 62.4719148,4.13864153 C62.8865904,4.55791567 63.5335575,4.66611545 64.4126807,4.46324087 C65.2918039,4.26036628 66.2385519,3.97857348 67.2529249,3.6179301 C68.2672978,3.25728671 69.270445,2.85153754 70.2622312,2.40068259 C71.2540851,1.94982763 71.8582456,1.6635716 72.0746451,1.54184684 C72.2865138,1.41565885 72.3992445,1.34803399 72.4127694,1.33897226 L72.4262268,1.3186848 L72.4938516,1.28487237 L72.5614765,1.25105994 L72.6291014,1.21724751 L72.6967262,1.18343508 L72.7102512,1.16314762 L72.7305387,1.14962265 L72.7508937,1.13609767 L72.7643511,1.11581022 L72.8319759,1.09552276 L72.8996008,1.08199779 L72.8861435,1.18343508 L72.8657884,1.28487237 L72.8319759,1.38630966 L72.7981635,1.48774696 L72.7643511,1.55537182 L72.7305387,1.62299668 L72.6967262,1.72443397 C72.6742071,1.79205883 72.6516881,1.88220277 72.6291014,1.99493342 C72.6065823,2.10766406 72.3924143,2.55845139 71.9866652,3.34743065 C71.580916,4.13640991 71.0737295,4.9366149 70.4651058,5.74811324 C69.856482,6.55961158 69.3110199,7.17269857 68.8286518,7.58750947 C68.3417528,8.00678361 68.019385,8.29980214 67.8615486,8.46663267 C67.7037798,8.63792645 67.5121986,8.79569525 67.2867373,8.9400067 L66.948613,9.16316875 L66.8809881,9.19698118 L66.8133633,9.23079361 L66.7999059,9.25108107 L66.7795508,9.26460604 L66.7592634,9.27813101 L66.7457384,9.29841847 L66.6781135,9.3322309 L66.6104887,9.36604333 L66.5970313,9.38633079 L66.5766762,9.39985576 L66.5563888,9.41338074 L66.5428638,9.43366819 L66.5294065,9.45395565 L66.5090514,9.46748062 L66.4887639,9.4810056 L66.475239,9.50129306 L66.6443011,9.50129306 L66.8133633,9.50129306 L68.7068594,9.09554389 C69.9692127,8.82504444 71.1751668,8.49821348 72.3247895,8.11498339 C73.4744121,7.7317533 74.0830359,7.52887872 74.1506607,7.50635964 C74.2182856,7.48384056 74.2859105,7.46125386 74.3535353,7.43873478 L74.4549726,7.40492235 L74.5225975,7.37110991 L74.5902223,7.33729748 L74.6578472,7.30348505 L74.7254721,7.26967262 L74.8607218,7.24938516 L74.9959715,7.23586019 L74.9959715,7.30348505 L74.9959715,7.37110991 L74.9621591,7.38463489 L74.9283467,7.40492235 L74.9148893,7.4252098 L74.8945342,7.43873478 L74.8742468,7.45225975 L74.8607218,7.47254721 L74.8472644,7.49283467 L74.8269094,7.50635964 L74.8066219,7.51988461 L74.7930969,7.54017207 L74.7796396,7.56045953 L74.7592845,7.5739845 L74.7254721,7.64160936 L74.6916596,7.70923422 L74.6713722,7.7227592 C74.6623781,7.73628417 74.376122,8.11944663 73.8125364,8.87238184 C73.2490185,9.62978029 72.9447066,10.0129428 72.8996008,10.0220045 C72.8545627,10.0355295 72.791401,10.1031543 72.7102512,10.2248791 C72.6336322,10.3510671 72.1557273,10.8537903 71.2766041,11.7329135 C70.3974809,12.6120367 69.5364812,13.3941858 68.693402,14.0794962 C67.8458597,14.7692698 67.4175238,15.6168122 67.4085297,16.622191 C67.3950047,17.6230389 67.3431364,18.7546734 67.2529249,20.016959 C67.1627809,21.2793123 66.9937188,22.6430353 66.7457384,24.1082632 C66.4978257,25.573491 66.1145956,27.2303001 65.5961158,29.0786905 C65.0777036,30.9270808 64.4464931,32.730433 63.7026196,34.4886794 C62.9587462,36.2469258 62.1810602,37.8248167 61.3695619,39.2224197 C60.5580636,40.6200227 59.8141901,41.8034578 59.1379415,42.772725 C58.4616929,43.7419921 57.7742185,44.6549277 57.0753832,45.5115319 C56.3766155,46.368136 55.4930291,47.3329399 54.4245562,48.4058759 C53.3515526,49.4743487 52.7655155,50.0604534 52.6663098,50.1641223 C52.5626409,50.263328 52.1208477,50.6330331 51.3407949,51.2731701 C50.5654083,51.9178379 49.7313232,52.5625057 48.8386751,53.2072411 C47.9505577,53.8474457 47.1345285,54.3816821 46.3906551,54.8099503 C45.6467816,55.2382186 44.7496702,55.7273492 43.6991856,56.2774098 C42.6532995,56.8319337 41.521665,57.3458826 40.3044175,57.8192567 C39.08717,58.2926307 37.8022976,58.7321923 36.4498004,59.1379415 C35.0973032,59.5436906 33.7899117,59.8592959 32.5275584,60.0846895 C31.2652728,60.3100832 29.8338573,60.5017321 28.2333797,60.6595009 L25.8326971,60.8961879 L25.8326971,60.9164753 L25.8326971,60.9300003 L23.6348891,60.9300003 L21.4370811,60.9300003 L21.4370811,60.9164753 L21.4370811,60.8961879 L20.8622698,60.8623754 C20.4791073,60.8398564 20.1635021,60.8172697 19.9155217,60.7947506 C19.667609,60.7722315 18.7320867,60.6482075 17.10909,60.4228138 C15.4860933,60.1974202 14.2125143,59.9719589 13.2882853,59.7465652 C12.3641239,59.5211716 10.98904,59.0928357 9.16316875,58.4616929 C7.33729748,57.83055 5.77516318,57.1925771 4.47676584,56.5479093 C3.18289936,55.9077047 2.37140102,55.5019555 2.04227082,55.3306618 C1.71767148,55.1638312 1.35249723,54.9564934 0.946748062,54.708513 L0.338124308,54.3365763 L0.324666961,54.3162888 L0.304311877,54.3027639 L0.284024419,54.2892389 L0.270499446,54.2689514 L0.202874585,54.235139 L0.135249723,54.2013266 L0.121792376,54.1810391 L0.101437292,54.1675141 L0.0811498339,54.1539892 L0.0676248616,54.1337017 L0.0541675141,54.1134143 L0.0338124308,54.0998893 L0.0135249723,54.0998893 L0,54.0998893 L0,54.0322644 L0,53.9646396 L0.0676248616,53.9781645 L0.135249723,53.998452 L0.4395616,54.0322644 C0.642436185,54.0547835 1.19472843,54.0885959 2.09637071,54.1337017 C2.99808061,54.1788075 3.9560544,54.1788075 4.97042733,54.1337017 C5.98480025,54.0885959 7.02175988,53.9871586 8.08117096,53.8293898 C9.14064967,53.671621 10.3917096,53.4011216 11.8343508,53.0178915 C13.2770596,52.6346614 14.6025069,52.1793432 15.8107603,51.6518693 C17.0144828,51.1199321 17.8710193,50.7231771 18.380505,50.4616717 C18.8853922,50.2046973 19.6563156,49.7267924 20.6932077,49.0280247 L22.2485795,47.9798393 L22.2621044,47.9595518 L22.2823919,47.9460269 L22.302747,47.9325019 L22.3162043,47.9122144 L22.3297293,47.891927 L22.3500168,47.878402 L22.3703718,47.864877 L22.3838292,47.8445896 L22.4514541,47.8243021 L22.5190789,47.8107772 L22.5326039,47.7431523 L22.5528913,47.6755274 L22.5732464,47.6620025 L22.5867038,47.641715 L22.0457049,47.6079026 C21.6850615,47.5853835 21.3356438,47.5627968 20.9975195,47.5402777 C20.6593952,47.5177586 20.1296897,47.4163213 19.4083353,47.2359658 C18.6870485,47.0556103 17.9093626,46.7851109 17.0752776,46.4244675 C16.2412601,46.0638241 15.4297618,45.6354882 14.6407825,45.1395951 C13.8518709,44.643702 13.2815228,44.2311227 12.9298735,43.9020602 C12.5827551,43.5773932 12.1319002,43.1176118 11.5773763,42.522513 C11.0273833,41.922951 10.5494784,41.3074971 10.1437292,40.6763543 C9.73798007,40.0452114 9.35028674,39.3170269 8.98064925,38.4920712 L8.41929527,37.2612987 L8.38548284,37.1598615 L8.35167041,37.0584242 L8.33138295,36.9907993 L8.31785798,36.9231744 L8.41929527,36.9366994 L8.52073256,36.9569869 L9.26460604,37.0584242 C9.76056677,37.126049 10.5382527,37.1485681 11.5976638,37.126049 C12.6571425,37.1035299 13.3897226,37.0584242 13.7954718,36.9907993 C14.2012209,36.9231744 14.4492013,36.8780687 14.5393452,36.8555496 L14.674595,36.8217371 L14.8436571,36.7879247 L15.0127193,36.7541123 L15.0262442,36.7338248 L15.0465317,36.7202999 L15.0668868,36.7067749 L15.0803441,36.6864874 L14.9450944,36.652675 L14.8098447,36.6188626 L14.674595,36.5850501 L14.5393452,36.5512377 L14.4040955,36.5174253 C14.3139516,36.4949062 14.1561828,36.4498004 13.9307215,36.3821755 C13.7053278,36.3145507 13.0967041,36.0665703 12.1048502,35.6383021 C11.113064,35.2100338 10.3240847,34.7929913 9.73798007,34.3872421 C9.15194302,33.981493 8.59288829,33.5374681 8.0608835,33.0550324 C7.53340958,32.5681333 6.95413502,31.9414538 6.32292456,31.1750612 C5.69178173,30.4086686 5.12826375,29.5182521 4.63230302,28.5038792 C4.13640991,27.4895062 3.76447317,26.5202391 3.5164928,25.5960101 C3.26858006,24.6717811 3.10628039,23.7363264 3.02966142,22.7895784 L2.90786905,21.3694563 L2.97549391,21.3829812 L3.04311877,21.4032687 L3.11074363,21.4370811 L3.1783685,21.4708936 L3.24599336,21.504706 L3.31361822,21.5385184 L4.36180357,22.0118925 C5.06063889,22.3274977 5.92846874,22.5979971 6.96536075,22.8233908 C8.00232037,23.0487845 8.62216985,23.1728085 8.82504444,23.1953275 L9.12935632,23.22914 L9.43366819,23.22914 L9.73798007,23.22914 L9.72452272,23.2088525 L9.70416764,23.1953275 L9.68388018,23.1818026 L9.67035521,23.1615151 L9.65689786,23.1412276 L9.63654278,23.1277027 L9.61625532,23.1141777 L9.60273035,23.0938902 L9.53510549,23.0600778 L9.46748062,23.0262654 L9.45402328,23.0059779 L9.43366819,22.9924529 L9.41338074,22.978928 L9.39985576,22.9586405 L9.3322309,22.9248281 L9.26460604,22.8910157 L9.25114869,22.8707282 C9.23762372,22.8616665 9.04374324,22.7174226 8.66950726,22.4379291 C8.29980214,22.1539047 7.91210881,21.7864988 7.50635964,21.3356438 C7.10061047,20.8847889 6.6948613,20.4114149 6.28911213,19.9155217 C5.88336296,19.4196286 5.52271957,18.8898555 5.20711434,18.3263375 C4.89157674,17.7628195 4.55791567,17.0459284 4.20626639,16.1758669 C3.85914798,15.3102687 3.59541102,14.437908 3.41505551,13.5587848 C3.23476763,12.6796616 3.13333034,11.8118317 3.11074363,10.9552276 C3.08822455,10.0986235 3.11074363,9.36604333 3.1783685,8.75741958 C3.24599336,8.14879582 3.38124308,7.46125386 3.58411767,6.6948613 C3.78699225,5.92846874 4.0800784,5.1169704 4.46324087,4.26036628 L5.03805219,2.97549391 L5.07186462,2.87405662 L5.10567705,2.77261933 L5.12603213,2.75909435 L5.13948948,2.73880689 L5.15301445,2.71851944 L5.17330191,2.70499446 L5.193657,2.71851944 L5.20711434,2.73880689 L5.22063932,2.75909435 L5.24092677,2.77261933 L5.26128186,2.7861443 L5.27473921,2.80643176 L5.28826418,2.82671922 L5.30855164,2.84024419 L5.34236407,2.90786905 L5.3761765,2.97549391 L5.39653158,2.98901888 L5.40998893,3.00930634 L6.32292456,4.02367927 C6.93154831,4.69992788 7.65290271,5.45509471 8.48692013,6.28911213 C9.32100517,7.12312955 9.78308585,7.55592866 9.87322979,7.58750947 C9.96344136,7.62355352 10.0761044,7.72722244 10.2113541,7.89858384 C10.3466038,8.06541437 10.7974588,8.46440105 11.5638513,9.09554389 C12.3303115,9.72668672 13.3333911,10.4593345 14.5731577,11.2933519 C15.8129919,12.1273693 17.1880082,12.950161 18.6982742,13.7616593 C20.2086079,14.5731577 21.8316046,15.3057378 23.5672643,15.9594673 C25.3029916,16.6131969 26.5202391,17.0414651 27.2190068,17.2443397 C27.9178421,17.4472143 29.1125029,17.7064204 30.8031245,18.0220256 C32.493746,18.3376308 33.7673926,18.5405054 34.6239291,18.6306494 C35.4805333,18.7207933 36.0666379,18.7726616 36.3821755,18.7861866 L36.8555496,18.7997115 L36.8420922,18.6982742 L36.8217371,18.5968369 L36.6864874,17.7515262 C36.5963435,17.1880082 36.5512377,16.3990289 36.5512377,15.384656 C36.5512377,14.3702831 36.6301559,13.4348284 36.7879247,12.5782243 C36.9457611,11.7216201 37.1824482,10.8537903 37.4979858,9.97466709 C37.813591,9.09554389 38.1224337,8.38994608 38.4244464,7.85800892 C38.7310575,7.330535 39.1322758,6.72867373 39.6281689,6.05242511 C40.1241296,5.3761765 40.7665658,4.6774088 41.5554775,3.9560544 C42.3444567,3.23470001 43.246099,2.59226382 44.2604719,2.02874585 C45.2748448,1.46522788 46.2103672,1.036892 47.0669037,0.743873478 C47.9235078,0.450854952 48.6448622,0.259206095 49.2308992,0.169062154 C49.8170039,0.0789182135 50.1100224,0.0270499446 50.1100224,0.0135249723 L50.1100224,0.0135249723 Z" id="Shape"></path>
        </g>
    </g>
</svg>

<svg width="75" height="61" viewBox="0 0 75 61" xmlns="http://www.w3.org/2000/svg"><title>Shape</title><path d="M50.11.014V0h3.517l1.284.257c.857.167 1.635.385 2.333.656.7.27 1.376.586 2.03.947.653.36 1.246.728 1.778 1.102.527.37 1 .762 1.42 1.177.415.419 1.062.527 1.94.324.88-.203 1.827-.484 2.84-.845a38.156 38.156 0 0 0 3.01-1.217c.992-.451 1.596-.737 1.813-.86.212-.125.324-.193.338-.202l.013-.02.068-.034.067-.034.068-.034.068-.034.013-.02.02-.013.02-.014.014-.02.068-.02.068-.014-.014.101-.02.102-.034.101-.034.102-.034.067-.033.068-.034.101a2.352 2.352 0 0 0-.068.27c-.022.114-.237.564-.642 1.353-.406.79-.913 1.59-1.522 2.401-.609.812-1.154 1.425-1.636 1.84-.487.419-.81.712-.967.879-.158.17-.35.329-.575.473l-.338.223-.068.034-.068.034-.013.02-.02.014-.02.013-.014.02-.068.034-.068.034-.013.02-.02.014-.02.013-.014.02-.014.021-.02.013-.02.014-.014.02h.338l1.894-.405a33.885 33.885 0 0 0 3.618-.981l1.826-.609.203-.067.101-.034.068-.034.067-.034.068-.034.067-.033.136-.02.135-.014v.135l-.034.014-.034.02-.013.02-.02.014-.02.013-.014.02-.014.02-.02.014-.02.014-.014.02-.013.02-.02.014-.035.068-.033.067-.02.014-.86 1.15c-.563.757-.867 1.14-.912 1.149-.045.014-.109.081-.19.203-.076.126-.554.629-1.433 1.508-.88.879-1.74 1.661-2.584 2.346-.847.69-1.275 1.538-1.284 2.543-.014 1.001-.066 2.133-.156 3.395a42.98 42.98 0 0 1-.507 4.091c-.248 1.465-.631 3.122-1.15 4.97a45.19 45.19 0 0 1-1.893 5.41c-.744 1.759-1.522 3.337-2.333 4.734-.812 1.398-1.556 2.581-2.232 3.55a45.663 45.663 0 0 1-2.063 2.74c-.698.856-1.582 1.82-2.65 2.894a268.665 268.665 0 0 0-1.759 1.758c-.103.1-.545.469-1.325 1.11-.776.644-1.61 1.289-2.502 1.933a28.942 28.942 0 0 1-2.448 1.603c-.744.428-1.641.917-2.692 1.467a32.021 32.021 0 0 1-3.395 1.542 51.339 51.339 0 0 1-3.854 1.319c-1.353.406-2.66.721-3.922.947a55.759 55.759 0 0 1-4.295.575l-2.4.236v.034h-4.396v-.034l-.575-.034a30.827 30.827 0 0 1-.946-.067c-.248-.023-1.184-.147-2.807-.372-1.623-.226-2.896-.451-3.82-.676-.925-.226-2.3-.654-4.126-1.285-1.826-.631-3.388-1.27-4.686-1.914a187.248 187.248 0 0 1-2.435-1.217c-.324-.167-.69-.375-1.095-.622l-.609-.372-.013-.02-.02-.014-.021-.014-.014-.02-.067-.034-.068-.034-.013-.02-.02-.013-.02-.014-.014-.02-.014-.02-.02-.014H0v-.135l.068.013.067.02.305.034c.202.023.755.057 1.656.102.902.045 1.86.045 2.874 0a30.239 30.239 0 0 0 3.111-.305c1.06-.157 2.31-.428 3.753-.811a27.73 27.73 0 0 0 3.977-1.366c1.203-.532 2.06-.929 2.57-1.19.504-.257 1.275-.735 2.312-1.434l1.556-1.048.013-.02.02-.014.02-.013.014-.02.014-.021.02-.014.02-.013.014-.02.067-.02.068-.014.014-.068.02-.067.02-.014.014-.02-.541-.034c-.36-.023-.71-.045-1.048-.068-.339-.022-.868-.124-1.59-.304-.721-.18-1.499-.45-2.333-.812a17.986 17.986 0 0 1-2.434-1.284c-.79-.496-1.36-.909-1.711-1.238a29.67 29.67 0 0 1-1.353-1.38c-.55-.599-1.028-1.215-1.433-1.846a16.587 16.587 0 0 1-1.163-2.184l-.562-1.23-.034-.102-.033-.102-.02-.067-.014-.068.101.014.102.02.744.101c.496.068 1.273.09 2.333.068 1.06-.022 1.792-.068 2.197-.135.406-.068.654-.113.744-.135l.136-.034.169-.034.169-.034.013-.02.02-.014.02-.013.014-.02-.135-.034-.135-.034-.135-.034-.136-.034-.135-.034c-.09-.022-.248-.067-.473-.135-.226-.067-.834-.315-1.826-.744-.992-.428-1.78-.845-2.367-1.25a16.345 16.345 0 0 1-1.677-1.333c-.528-.487-1.107-1.114-1.738-1.88a13.527 13.527 0 0 1-1.69-2.671 16.245 16.245 0 0 1-1.117-2.908c-.247-.924-.41-1.86-.486-2.806l-.122-1.42.067.013.068.02.068.034.067.034.068.034.068.034 1.048.473c.699.315 1.566.586 2.603.811 1.037.226 1.657.35 1.86.372l.304.034h.609l-.013-.02-.02-.014-.021-.013-.014-.02-.013-.02-.02-.014-.02-.014-.014-.02-.068-.034-.068-.034-.013-.02-.02-.014-.02-.013-.014-.02-.068-.034-.067-.034-.014-.02a84.31 84.31 0 0 1-.581-.433 8.868 8.868 0 0 1-1.164-1.102c-.405-.451-.811-.925-1.217-1.42a10.966 10.966 0 0 1-1.082-1.59c-.315-.563-.65-1.28-1-2.15a15.265 15.265 0 0 1-.792-2.617c-.18-.88-.282-1.747-.304-2.604-.023-.856 0-1.589.067-2.198.068-.608.203-1.296.406-2.062.203-.767.496-1.578.88-2.435l.574-1.285.034-.1.034-.102.02-.014.013-.02.014-.02.02-.014.02.014.014.02.014.02.02.014.02.013.014.02.013.02.02.014.034.068.034.067.02.014.014.02.913 1.015c.609.676 1.33 1.431 2.164 2.265.834.834 1.296 1.267 1.386 1.299.09.036.203.14.338.31.136.167.586.566 1.353 1.198.766.63 1.77 1.363 3.01 2.197a48.67 48.67 0 0 0 4.124 2.469 40.25 40.25 0 0 0 4.87 2.197c1.735.654 2.952 1.082 3.651 1.285.699.203 1.894.462 3.584.778 1.69.316 2.964.519 3.82.609.858.09 1.444.142 1.76.155l.473.014-.014-.102-.02-.101-.136-.845c-.09-.564-.135-1.353-.135-2.367 0-1.015.08-1.95.237-2.807.158-.856.394-1.724.71-2.603.316-.88.624-1.585.926-2.117.307-.527.708-1.13 1.204-1.806.496-.676 1.139-1.375 1.927-2.096A14.222 14.222 0 0 1 44.26 2.03c1.015-.564 1.95-.992 2.807-1.285.857-.293 1.578-.485 2.164-.575.586-.09.879-.142.879-.155z" fill="#FFF" fill-rule="evenodd"/></svg>
